X: 1
T: the Highlander's Jig
R: Jig
T: Cold Winds from Ben Wyviss
B: Kerr's Merry Melodies Bk3, p32
B: DunGreen Collection  p.107
M: 6/8
L: 1/8
F: http://www.scottishfiddlers.com/Sydney/Music/ABC/SSF_Dance.abc
K: A
d \
| "A"c2e ece | "D"fdf "A"ecA \
|1,3 "A"c2e    ef=g | "G"B=GB "(E7)"B2 \
:|2,4 "A"cec "E7"dBG | "A"ABA A2 :|
|: g \
| "F#m"a2f "E"g2e | "D"fdf "A"ecA \
|1,3 "F#m"a2f "G"=g2d | "G"B=GB "E7"B2 \
:|2,4   "A"cec "E7"dBG | "A"ABA A2 :|
